X: 11712
Q: "Moderate."
M: 2/4
L: 1/16
K: Am
|:\
c3B A4 | c3B A4 | cBcd edcB | c2z2 A2z2 :|
|:\
cBcd ede^f | g3e c4 | A^GAB cBcd | e2z2 E2z2 |\
cBcd ede^f | ag=fe gfed | fedc edcB | c2z2 A2z2 :|
|:\


